!!!OTL: 645. Jst denn Lieben ein Verbrechen?
!!!ARE: Europa, Mitteleuropa, Deutschland
!!!SCT: E0645A
!!!TXL: @@DE
!!!YEM: Copyright 1995, estate of Helmut Schaffrath.
**kern	**text
*ICvox	*
*M4/4	*
*met(c)	*
*k[f#]	*
*G:	*
!LO:TX:a:t=Etwa bewegt.	!
!LO:TX:a:t=Alte Melodie vor 1810.	!
{8d	Jſt
8d	denn
=1	=1
4.g	Lie-
8g	-ben
(4g	ein
16aqqL	.
16gqqJ	.
8f#)	.
8g	Ver-
=2	=2
8.bL	-bre-
16aJ	.
4a	-chen?
4r}	.
{8a	darf
8g	man
=3	=3
8gL	denn
8f#J	.
8eL	nicht
8dJ	.
4.dd	ʒärt-
8cc	-lich
=4	=4
2b	ſein?
4r}	.
{8d	nicht
8g	von
=5	=5
4.b	ſei-
8b	-nem
(<4b	Lieb-
16ccqqL	.
16bqqJ	.
8a)	.
8g	-chen
=6	=6
8.f#L	ſpre-
16eJ	.
4e	-chen
4r}	.
{8g	und
8e	ſich
=7	=7
4.d	nicht
8d	der
(4d	Lie-
8e)	.
8f#	-be
=8	=8
2g	freun?
4r}	.
{8f#	Dann
8g	ge-
=9	=9
4.a	-reut
8a	es
4a	mich
8gL	des
8aJ	.
=10	=10
4b	Le-
4g	-bens,
4r}	.
{8f#	dann
8g	be-
=11	=11
4.a	-klag
8a	ich
4.dd	die
8cc	Na-
=12	=12
2b	-tur
4r}	.
{8d	Hab
8g	ich
=13	=13
4.b	denn
8b	ein
(<4b	Herʒ
16ccqqL	.
16bqqJ	.
8a)	.
8g	ver-
=14	=14
8.f#L	-ge-
16eJ	.
4e	-bens
4r}	.
{16aL	o-
16gJ	.
16f#L	-der
16eJ	.
=15	=15
4.d	doch
8d	ʒum
(4d	Kla-
8e)	.
8f#	-gen
=16	=16
2g	nur?
4r}	.
==	==
!!!AGN: Liebes - Lied
!!!ONB: ESAC (Essen Associative Code) Database: ERK2
!!!AMT: simple quadruple
!!!AIN: vox
!!!EED: Helmut Schaffrath
!!!EEV: 1.0
!!!RDF**kern: < = below
!!!GTL: Liebeslieder [Neuere (aus dem 18. bis 19. Jahrh.) - Liebeslust]
!!!URL-scan: https://rosdok.uni-rostock.de/mcrviewer/recordIdentifier/rosdok_ppn745177662/iview2/phys_0457.iview2?x=48.368023684967966&y=1264.6773121629376&scale=0.7029437510502773&rotation=0&layout=singlePageLayout
!!!ENC: Anna Maria Matuszewska
!!!EEV: 2024/12/12
*-	*-
